www/assets/icons/sticky_note_2.svg

<svg xmlns="http://www.w3.org/2000/svg" width="24" height="24" viewBox="0 0 24 24" fill='currentColor'><path d="M19 3H4.99C3.89 3 3 3.9 3 5l.01 14c0 1.1.89 2 1.99 2h10l6-6V5c0-1.1-.9-2-2-2M7 8h10v2H7zm5 6H7v-2h5zm2 5.5V14h5.5z"/></svg>

<svg width="24" height="24" viewBox="0 0 24 24" xmlns="http://www.w3.org/2000/svg" fill='currentColor'><path d="M19 3H4.99C3.89 3 3 3.9 3 5L3.01 19C3.01 20.1 3.9 21 5 21H15L21 15V5C21 3.9 20.1 3 19 3ZM7 8H17V10H7V8ZM12 14H7V12H12V14ZM14 19.5V14H19.5L14 19.5Z"/></svg>
